X:1
T:Beethoven (Mason), LM
T:Beethoven (Mason), LM
T:Arranged by Lowell Mason, 1855
T:Public Domain Courtesy of the Cyber Hymnal™
C:Arranged by Lowell Mason, 1855
Z:Public Domain
Z:Courtesy of the Cyber Hymnal™
%%score ( 1 2 ) ( 3 4 )
L:1/8
M:3/2
K:Eb
V:1 treble 
V:2 treble 
V:3 bass 
V:4 bass 
V:1
 [EG]2 [EA]2 [EB]2 | [Ec]6 [EB]2 [DA]2 [EG]2 | [DF]6 [EG]2 [EA]2 [EB]2 | [Ec]2 [_Ge]2 [Fd]4 [Ec]4 | %4
 [DB]4 z2 [GB]2 [FA]2 [EG]2 | [DF]6 [Ac]2 [GB]2 [FA]2 | [EG]6 [EG]2 [EA]2 [EB]2 | %7
 [Ec]2 [Ee]2 [EG]4 [DF]4 | E4 z2 |] %9
V:2
 x6 | x12 | x12 | x12 | x12 | x12 | x12 | x12 | E4 x2 |] %9
V:3
 [E,B,]2 [F,B,]2 [G,C]2 | A,6 [G,B,]2 [F,B,]2 [E,B,]2 | [B,,B,]6 [E,B,]2 [F,B,]2 [G,B,]2 | %3
 A,2 [=A,C]2 B,4 [F,A,]4 | [B,,B,]4 z2 [B,,B,]2 [B,,B,]2 [B,,B,]2 | %5
 [B,,B,]6 [B,,B,]2 [B,,B,]2 [B,,B,]2 | [E,B,]6 [E,B,]2 [F,B,]2 [G,B,]2 | %7
 A,2 [=A,C]2 B,4 [B,,_A,]4 | [E,G,]4 z2 |] %9
V:4
 x6 | A,6 x6 | x12 | =A,2 B,4 x6 | x12 | x12 | x12 | A,2 B,4 x6 | x6 |] %9

